; generated by PrusaSlicer 2.3.3+win64 on 2021-10-19 at 18:06:36 UTC

; 

; external perimeters extrusion width = 0.45mm
; perimeters extrusion width = 0.45mm
; infill extrusion width = 0.45mm
; solid infill extrusion width = 0.45mm
; top infill extrusion width = 0.40mm
; first layer extrusion width = 0.42mm

M201 X500 Y500 Z100 E5000 ; sets maximum accelerations, mm/sec^2
M203 X500 Y500 Z10 E60 ; sets maximum feedrates, mm/sec
M204 P500 R1000 T500 ; sets acceleration (P, T) and retract acceleration (R), mm/sec^2
M205 X8.00 Y8.00 Z0.40 E5.00 ; sets the jerk limits, mm/sec
M205 S0 T0 ; sets the minimum extruding and travel feed rate, mm/sec
M107
;TYPE:Custom
G90 ; use absolute coordinates
M83 ; extruder relative mode
M140 S105 ; set final bed temp
M104 S150 ; set temporary nozzle temp to prevent oozing during homing
G4 S10 ; allow partial nozzle warmup
G28 ; home all axis
G1 Z50 F240
G1 X2 Y10 F3000
M104 S230 ; set final nozzle temp
M190 S105 ; wait for bed temp to stabilize
M109 S230 ; wait for nozzle temp to stabilize
G1 Z0.28 F240
G92 E0
G1 Y140 E10 F1500 ; prime the nozzle
G1 X2.3 F5000
G92 E0
G1 Y10 E10 F1200 ; prime the nozzle
G92 E0
G21 ; set units to millimeters
G90 ; use absolute coordinates
M83 ; use relative distances for extrusion
; Filament gcode
;LAYER_CHANGE
;Z:0.2
;HEIGHT:0.2
;BEFORE_LAYER_CHANGE
G92 E0
;0.2


G1 E-5.00000 F3600.000
G1 Z0.200 F7200.000
;AFTER_LAYER_CHANGE
;0.2
G1 X73.896 Y33.043
G1 E5.00000 F2400.000
M204 S500
;TYPE:Skirt
;WIDTH:0.42
G1 F1200.000
G1 X75.062 Y32.849 E0.03705
G1 X157.194 Y32.847 E2.57519
G1 X157.913 Y32.923 E0.02266
G1 X158.729 Y33.155 E0.02662
G1 X159.459 Y33.550 E0.02601
G1 X160.042 Y34.020 E0.02348
G1 X160.480 Y34.546 E0.02146
G1 X160.951 Y35.371 E0.02980
G1 X161.158 Y36.023 E0.02146
G1 X161.256 Y36.829 E0.02546
G1 X161.586 Y118.544 E2.56213
G1 X161.586 Y186.974 E2.14557
G1 X161.437 Y188.026 E0.03333
G1 X161.138 Y188.809 E0.02627
G1 X160.526 Y189.702 E0.03396
G1 X159.797 Y190.319 E0.02994
G1 X158.766 Y190.844 E0.03627
G1 X157.586 Y191.036 E0.03748
G1 X75.455 Y191.037 E2.57517
G1 X74.452 Y190.897 E0.03175
G1 X73.507 Y190.520 E0.03189
G1 X72.755 Y189.977 E0.02909
G1 X72.017 Y189.096 E0.03603
G1 X71.575 Y188.073 E0.03494
G1 X71.414 Y187.021 E0.03338
G1 X71.084 Y105.340 E2.56107
G1 X71.084 Y36.910 E2.14557
G1 X71.233 Y35.862 E0.03319
G1 X71.531 Y35.079 E0.02627
G1 X72.139 Y34.188 E0.03382
G1 X72.866 Y33.570 E0.02994
G1 X73.843 Y33.071 E0.03439
G1 E-3.50000 F3600.000
;WIPE_START
G1 F5760.000
G1 X75.062 Y32.849 E-0.73568
G1 X76.223 Y32.849 E-0.68932
;WIPE_END
G1 E-0.07500 F3600.000
G1 X76.175 Y37.938 F7200.000
G1 E5.00000 F2400.000
;TYPE:Perimeter
G1 F1200.000
G1 X156.170 Y37.938 E2.50819
G1 X156.169 Y38.759 E0.02575
G1 X153.748 Y38.759 E0.07589
G1 X153.748 Y38.785 E0.00079
G1 X144.748 Y38.785 E0.28219
G1 X144.748 Y67.356 E0.89584
G1 X156.166 Y67.356 E0.35800
G1 X156.166 Y104.314 E1.15878
G1 X76.169 Y104.308 E2.50825
G1 X76.175 Y37.998 E2.07909
G1 E-3.50000 F3600.000
;WIPE_START
G1 F5760.000
G1 X78.575 Y37.996 E-1.42500
;WIPE_END
G1 E-0.07500 F3600.000
G1 X145.125 Y39.162 F7200.000
G1 E5.00000 F2400.000
G1 F1200.000
G1 X145.125 Y66.979 E0.87219
G1 X156.543 Y66.979 E0.35800
G1 X156.543 Y104.691 E1.18243
G1 X75.792 Y104.685 E2.53190
G1 X75.798 Y37.561 E2.10462
G1 X156.548 Y37.561 E2.53186
G1 X156.545 Y39.136 E0.04940
G1 X154.125 Y39.136 E0.07587
G1 X154.125 Y39.162 E0.00079
G1 X145.185 Y39.162 E0.28031
G1 X145.502 Y39.539 F7200.000
G1 F1200.000
G1 X145.502 Y66.602 E0.84855
G1 X156.920 Y66.602 E0.35800
G1 X156.920 Y105.068 E1.20608
G1 X75.415 Y105.062 E2.55555
G1 X75.421 Y37.184 E2.12826
G1 X156.926 Y37.184 E2.55553
G1 X156.921 Y39.514 E0.07304
G1 X154.502 Y39.514 E0.07585
G1 X154.502 Y39.539 E0.00079
G1 X145.562 Y39.539 E0.28031
G1 X145.879 Y39.916 F7200.000
;TYPE:External perimeter
G1 F1200.000
G1 X145.879 Y66.225 E0.82490
G1 X157.297 Y66.225 E0.35800
G1 X157.285 Y105.362 E1.22712
G1 X157.170 Y105.445 E0.00446
G1 X75.121 Y105.427 E2.57260
G1 X75.038 Y105.311 E0.00446
G1 X75.044 Y36.945 E2.14359
G1 X75.057 Y36.878 E0.00212
G1 X75.151 Y36.807 E0.00371
G1 X157.159 Y36.807 E2.57132
G1 X157.221 Y36.819 E0.00195
G1 X157.303 Y36.934 E0.00445
G1 X157.298 Y39.891 E0.09270
G1 X154.879 Y39.891 E0.07583
G1 X154.879 Y39.916 E0.00079
G1 X145.939 Y39.916 E0.28031
G1 X145.479 Y39.916 F7200.000
G1 E-3.50000 F3600.000
;WIPE_START
G1 F5760.000
G1 X145.934 Y42.316 E-1.42500
;WIPE_END
G1 E-0.07500 F3600.000
G1 X155.292 Y38.051 F7200.000
G1 E5.00000 F2400.000
;TYPE:Solid infill
;WIDTH:0.421063
G1 F1200.000
G1 X155.718 Y38.477 E0.01892
G1 X155.183 Y38.477 E0.01681
G1 X154.927 Y38.221 E0.01137
G1 X154.393 Y38.221 E0.01681
G1 X154.648 Y38.477 E0.01137
G1 X154.113 Y38.477 E0.01681
G1 X153.858 Y38.221 E0.01137
G1 X153.323 Y38.221 E0.01681
G1 X153.579 Y38.477 E0.01137
G1 X153.465 Y38.477 E0.00357
G1 X153.465 Y38.502 E0.00079
G1 X153.069 Y38.502 E0.01246
G1 X152.788 Y38.221 E0.01249
G1 X152.253 Y38.221 E0.01681
G1 X152.534 Y38.502 E0.01249
G1 X152.000 Y38.502 E0.01681
G1 X151.719 Y38.221 E0.01249
G1 X151.184 Y38.221 E0.01681
G1 X151.465 Y38.502 E0.01249
G1 X150.930 Y38.502 E0.01681
G1 X150.649 Y38.221 E0.01249
G1 X150.114 Y38.221 E0.01681
G1 X150.395 Y38.502 E0.01249
G1 X149.860 Y38.502 E0.01681
G1 X149.580 Y38.221 E0.01249
G1 X149.045 Y38.221 E0.01681
G1 X149.326 Y38.502 E0.01249
G1 X148.791 Y38.502 E0.01681
G1 X148.510 Y38.221 E0.01249
G1 X147.975 Y38.221 E0.01681
G1 X148.256 Y38.502 E0.01249
G1 X147.721 Y38.502 E0.01681
G1 X147.440 Y38.221 E0.01249
G1 X146.906 Y38.221 E0.01681
G1 X147.187 Y38.502 E0.01249
G1 X146.652 Y38.502 E0.01681
G1 X146.371 Y38.221 E0.01249
G1 X145.836 Y38.221 E0.01681
G1 X146.117 Y38.502 E0.01249
G1 X145.582 Y38.502 E0.01681
G1 X145.301 Y38.221 E0.01249
G1 X144.767 Y38.221 E0.01681
G1 X145.048 Y38.502 E0.01249
G1 X144.513 Y38.502 E0.01681
G1 X144.232 Y38.221 E0.01249
G1 X143.697 Y38.221 E0.01681
G1 X144.465 Y38.989 E0.03416
G1 X144.465 Y39.524 E0.01681
G1 X143.162 Y38.221 E0.05794
G1 X142.627 Y38.221 E0.01681
G1 X144.465 Y40.059 E0.08172
G1 X144.465 Y40.593 E0.01681
G1 X142.093 Y38.221 E0.10550
G1 X141.558 Y38.221 E0.01681
G1 X144.465 Y41.128 E0.12928
G1 X144.465 Y41.663 E0.01681
G1 X141.023 Y38.221 E0.15306
G1 X140.488 Y38.221 E0.01681
G1 X144.465 Y42.198 E0.17684
G1 X144.465 Y42.733 E0.01681
G1 X139.954 Y38.221 E0.20062
G1 X139.419 Y38.221 E0.01681
G1 X144.465 Y43.267 E0.22440
G1 X144.465 Y43.802 E0.01681
G1 X138.884 Y38.221 E0.24818
G1 X138.349 Y38.221 E0.01681
G1 X144.465 Y44.337 E0.27196
G1 X144.465 Y44.872 E0.01681
G1 X137.815 Y38.221 E0.29574
G1 X137.280 Y38.221 E0.01681
G1 X144.465 Y45.406 E0.31952
G1 X144.465 Y45.941 E0.01681
G1 X136.745 Y38.221 E0.34330
G1 X136.210 Y38.221 E0.01681
G1 X144.465 Y46.476 E0.36708
G1 X144.465 Y47.011 E0.01681
G1 X135.675 Y38.221 E0.39086
G1 X135.141 Y38.221 E0.01681
G1 X144.465 Y47.546 E0.41464
G1 X144.465 Y48.080 E0.01681
G1 X134.606 Y38.221 E0.43842
G1 X134.071 Y38.221 E0.01681
G1 X144.465 Y48.615 E0.46220
G1 X144.465 Y49.150 E0.01681
G1 X133.536 Y38.221 E0.48598
G1 X133.002 Y38.221 E0.01681
G1 X144.465 Y49.685 E0.50976
G1 X144.465 Y50.219 E0.01681
G1 X132.467 Y38.221 E0.53354
G1 X131.932 Y38.221 E0.01681
G1 X144.465 Y50.754 E0.55732
G1 X144.465 Y51.289 E0.01681
G1 X131.397 Y38.221 E0.58110
G1 X130.862 Y38.221 E0.01681
G1 X144.465 Y51.824 E0.60487
G1 X144.465 Y52.359 E0.01681
G1 X130.328 Y38.221 E0.62865
G1 X129.793 Y38.221 E0.01681
G1 X144.465 Y52.893 E0.65243
G1 X144.465 Y53.428 E0.01681
G1 X129.258 Y38.221 E0.67621
G1 X128.723 Y38.221 E0.01681
G1 X144.465 Y53.963 E0.69999
G1 X144.465 Y54.498 E0.01681
G1 X128.189 Y38.221 E0.72377
G1 X127.654 Y38.221 E0.01681
G1 X144.465 Y55.032 E0.74755
G1 X144.465 Y55.567 E0.01681
G1 X127.119 Y38.221 E0.77133
G1 X126.584 Y38.221 E0.01681
G1 X144.465 Y56.102 E0.79511
G1 X144.465 Y56.637 E0.01681
G1 X126.049 Y38.221 E0.81889
G1 X125.515 Y38.221 E0.01681
G1 X144.465 Y57.171 E0.84267
G1 X144.465 Y57.706 E0.01681
G1 X124.980 Y38.221 E0.86645
G1 X124.445 Y38.221 E0.01681
G1 X144.465 Y58.241 E0.89023
G1 X144.465 Y58.776 E0.01681
G1 X123.910 Y38.221 E0.91401
G1 X123.376 Y38.221 E0.01681
G1 X144.465 Y59.311 E0.93779
G1 X144.465 Y59.845 E0.01681
G1 X122.841 Y38.221 E0.96157
G1 X122.306 Y38.221 E0.01681
G1 X144.465 Y60.380 E0.98535
G1 X144.465 Y60.915 E0.01681
G1 X121.771 Y38.221 E1.00913
G1 X121.236 Y38.221 E0.01681
G1 X144.465 Y61.450 E1.03291
G1 X144.465 Y61.984 E0.01681
G1 X120.702 Y38.221 E1.05669
G1 X120.167 Y38.221 E0.01681
G1 X144.465 Y62.519 E1.08047
G1 X144.465 Y63.054 E0.01681
G1 X119.632 Y38.221 E1.10425
G1 X119.097 Y38.221 E0.01681
G1 X144.465 Y63.589 E1.12803
G1 X144.465 Y64.124 E0.01681
G1 X118.563 Y38.221 E1.15181
G1 X118.028 Y38.221 E0.01681
G1 X144.465 Y64.658 E1.17559
G1 X144.465 Y65.193 E0.01681
G1 X117.493 Y38.221 E1.19937
G1 X116.958 Y38.221 E0.01681
G1 X144.465 Y65.728 E1.22315
G1 X144.465 Y66.263 E0.01681
G1 X116.424 Y38.221 E1.24693
G1 X115.889 Y38.221 E0.01681
G1 X144.635 Y66.967 E1.27825
G1 E-3.50000 F3600.000
;WIPE_START
G1 F5760.000
G1 X142.938 Y65.270 E-1.42500
;WIPE_END
G1 E-0.07500 F3600.000
G1 X155.298 Y67.469 F7200.000
G1 E5.00000 F2400.000
G1 F1200.000
G1 X155.883 Y68.055 E0.02604
G1 X155.883 Y68.589 E0.01681
G1 X154.933 Y67.639 E0.04227
G1 X154.398 Y67.639 E0.01681
G1 X155.883 Y69.124 E0.06605
G1 X155.883 Y69.659 E0.01681
G1 X153.863 Y67.639 E0.08983
G1 X153.328 Y67.639 E0.01681
G1 X155.883 Y70.194 E0.11361
G1 X155.883 Y70.729 E0.01681
G1 X152.794 Y67.639 E0.13739
G1 X152.259 Y67.639 E0.01681
G1 X155.883 Y71.263 E0.16117
G1 X155.883 Y71.798 E0.01681
G1 X151.724 Y67.639 E0.18495
G1 X151.189 Y67.639 E0.01681
G1 X155.883 Y72.333 E0.20873
G1 X155.883 Y72.868 E0.01681
G1 X150.654 Y67.639 E0.23251
G1 X150.120 Y67.639 E0.01681
G1 X155.883 Y73.402 E0.25629
G1 X155.883 Y73.937 E0.01681
G1 X149.585 Y67.639 E0.28007
G1 X149.050 Y67.639 E0.01681
G1 X155.883 Y74.472 E0.30385
G1 X155.883 Y75.007 E0.01681
G1 X148.515 Y67.639 E0.32763
G1 X147.981 Y67.639 E0.01681
G1 X155.883 Y75.542 E0.35141
G1 X155.883 Y76.076 E0.01681
G1 X147.446 Y67.639 E0.37519
G1 X146.911 Y67.639 E0.01681
G1 X155.883 Y76.611 E0.39897
G1 X155.883 Y77.146 E0.01681
G1 X146.376 Y67.639 E0.42275
G1 X145.841 Y67.639 E0.01681
G1 X155.883 Y77.681 E0.44653
G1 X155.883 Y78.215 E0.01681
G1 X145.137 Y67.469 E0.47785
G1 E-3.50000 F3600.000
;WIPE_START
G1 F5760.000
G1 X146.834 Y69.166 E-1.42500
;WIPE_END
G1 E-0.07500 F3600.000
G1 X156.053 Y78.920 F7200.000
G1 E5.00000 F2400.000
G1 F1200.000
G1 X115.354 Y38.221 E1.80975
G1 X114.819 Y38.221 E0.01681
G1 X155.883 Y79.285 E1.82599
G1 X155.883 Y79.820 E0.01681
G1 X114.284 Y38.221 E1.84977
G1 X113.750 Y38.221 E0.01681
G1 X155.883 Y80.355 E1.87355
G1 X155.883 Y80.889 E0.01681
G1 X113.215 Y38.221 E1.89732
G1 X112.680 Y38.221 E0.01681
G1 X155.883 Y81.424 E1.92110
G1 X155.883 Y81.959 E0.01681
G1 X112.145 Y38.221 E1.94488
G1 X111.611 Y38.221 E0.01681
G1 X155.883 Y82.494 E1.96866
G1 X155.883 Y83.028 E0.01681
G1 X111.076 Y38.221 E1.99244
G1 X110.541 Y38.221 E0.01681
G1 X155.883 Y83.563 E2.01622
G1 X155.883 Y84.098 E0.01681
G1 X110.006 Y38.221 E2.04000
G1 X109.471 Y38.221 E0.01681
G1 X155.883 Y84.633 E2.06378
G1 X155.883 Y85.167 E0.01681
G1 X108.937 Y38.221 E2.08756
G1 X108.402 Y38.221 E0.01681
G1 X155.883 Y85.702 E2.11134
G1 X155.883 Y86.237 E0.01681
G1 X107.867 Y38.221 E2.13512
G1 X107.332 Y38.221 E0.01681
G1 X155.883 Y86.772 E2.15890
G1 X155.883 Y87.307 E0.01681
G1 X106.798 Y38.221 E2.18268
G1 X106.263 Y38.221 E0.01681
G1 X155.883 Y87.841 E2.20646
G1 X155.883 Y88.376 E0.01681
G1 X105.728 Y38.221 E2.23024
G1 X105.193 Y38.221 E0.01681
G1 X155.883 Y88.911 E2.25402
G1 X155.883 Y89.446 E0.01681
G1 X104.658 Y38.221 E2.27780
G1 X104.124 Y38.221 E0.01681
G1 X155.883 Y89.980 E2.30158
G1 X155.883 Y90.515 E0.01681
G1 X103.589 Y38.221 E2.32536
G1 X103.054 Y38.221 E0.01681
G1 X155.883 Y91.050 E2.34914
G1 X155.883 Y91.585 E0.01681
G1 X102.519 Y38.221 E2.37292
G1 X101.985 Y38.221 E0.01681
G1 X155.883 Y92.120 E2.39670
G1 X155.883 Y92.654 E0.01681
G1 X101.450 Y38.221 E2.42048
G1 X100.915 Y38.221 E0.01681
G1 X155.883 Y93.189 E2.44426
G1 X155.883 Y93.724 E0.01681
G1 X100.380 Y38.221 E2.46804
G1 X99.845 Y38.221 E0.01681
G1 X155.883 Y94.259 E2.49182
G1 X155.883 Y94.793 E0.01681
G1 X99.311 Y38.221 E2.51560
G1 X98.776 Y38.221 E0.01681
G1 X155.883 Y95.328 E2.53938
G1 X155.883 Y95.863 E0.01681
G1 X98.241 Y38.221 E2.56316
G1 X97.706 Y38.221 E0.01681
G1 X155.883 Y96.398 E2.58694
G1 X155.883 Y96.933 E0.01681
G1 X97.172 Y38.221 E2.61072
G1 X96.637 Y38.221 E0.01681
G1 X155.883 Y97.467 E2.63450
G1 X155.883 Y98.002 E0.01681
G1 X96.102 Y38.221 E2.65827
G1 X95.567 Y38.221 E0.01681
G1 X155.883 Y98.537 E2.68205
G1 X155.883 Y99.072 E0.01681
G1 X95.033 Y38.221 E2.70583
G1 X94.498 Y38.221 E0.01681
G1 X155.883 Y99.606 E2.72961
G1 X155.883 Y100.141 E0.01681
G1 X93.963 Y38.221 E2.75339
G1 X93.428 Y38.221 E0.01681
G1 X155.883 Y100.676 E2.77717
G1 X155.883 Y101.211 E0.01681
G1 X92.893 Y38.221 E2.80095
G1 X92.359 Y38.221 E0.01681
G1 X155.883 Y101.746 E2.82473
G1 X155.883 Y102.280 E0.01681
G1 X91.824 Y38.221 E2.84851
G1 X91.289 Y38.221 E0.01681
G1 X155.883 Y102.815 E2.87229
G1 X155.883 Y103.350 E0.01681
G1 X90.754 Y38.221 E2.89607
G1 X90.220 Y38.221 E0.01681
G1 X155.883 Y103.885 E2.91985
G1 X155.883 Y104.031 E0.00460
G1 X155.495 Y104.031 E0.01221
G1 X89.685 Y38.221 E2.92636
G1 X89.150 Y38.221 E0.01681
G1 X154.960 Y104.031 E2.92636
G1 X154.425 Y104.031 E0.01682
G1 X88.615 Y38.221 E2.92635
G1 X88.080 Y38.221 E0.01681
G1 X153.890 Y104.031 E2.92635
G1 X153.356 Y104.031 E0.01682
G1 X87.546 Y38.221 E2.92635
G1 X87.011 Y38.221 E0.01681
G1 X152.821 Y104.031 E2.92635
G1 X152.286 Y104.031 E0.01682
G1 X86.476 Y38.221 E2.92635
G1 X85.941 Y38.221 E0.01681
G1 X151.751 Y104.031 E2.92634
G1 X151.216 Y104.031 E0.01682
G1 X85.407 Y38.221 E2.92634
G1 X84.872 Y38.221 E0.01681
G1 X150.681 Y104.031 E2.92634
G1 X150.147 Y104.031 E0.01682
G1 X84.337 Y38.221 E2.92634
G1 X83.802 Y38.221 E0.01681
G1 X149.612 Y104.030 E2.92634
G1 X149.077 Y104.030 E0.01682
G1 X83.267 Y38.221 E2.92634
G1 X82.733 Y38.221 E0.01681
G1 X148.542 Y104.030 E2.92633
G1 X148.007 Y104.030 E0.01682
G1 X82.198 Y38.221 E2.92633
G1 X81.663 Y38.221 E0.01681
G1 X147.473 Y104.030 E2.92633
G1 X146.938 Y104.030 E0.01682
G1 X81.128 Y38.221 E2.92633
G1 X80.594 Y38.221 E0.01681
G1 X146.403 Y104.030 E2.92633
G1 X145.868 Y104.030 E0.01682
G1 X80.059 Y38.221 E2.92633
G1 X79.524 Y38.221 E0.01681
G1 X145.333 Y104.030 E2.92632
G1 X144.799 Y104.030 E0.01682
G1 X78.989 Y38.221 E2.92632
G1 X78.454 Y38.221 E0.01681
G1 X144.264 Y104.030 E2.92632
G1 X143.729 Y104.030 E0.01682
G1 X77.920 Y38.221 E2.92632
G1 X77.385 Y38.221 E0.01681
G1 X143.194 Y104.030 E2.92632
G1 X142.659 Y104.030 E0.01682
G1 X76.850 Y38.221 E2.92631
G1 X76.458 Y38.221 E0.01234
G1 X76.458 Y38.363 E0.00448
G1 X142.124 Y104.030 E2.91998
G1 X141.590 Y104.030 E0.01682
G1 X76.458 Y38.898 E2.89620
G1 X76.458 Y39.433 E0.01681
G1 X141.055 Y104.030 E2.87242
G1 X140.520 Y104.030 E0.01682
G1 X76.458 Y39.967 E2.84864
G1 X76.458 Y40.502 E0.01681
G1 X139.985 Y104.030 E2.82486
G1 X139.450 Y104.030 E0.01682
G1 X76.458 Y41.037 E2.80109
G1 X76.457 Y41.572 E0.01681
G1 X138.916 Y104.030 E2.77731
G1 X138.381 Y104.030 E0.01682
G1 X76.457 Y42.106 E2.75353
G1 X76.457 Y42.641 E0.01681
G1 X137.846 Y104.030 E2.72975
G1 X137.311 Y104.030 E0.01682
G1 X76.457 Y43.176 E2.70597
G1 X76.457 Y43.711 E0.01681
G1 X136.776 Y104.030 E2.68219
G1 X136.241 Y104.029 E0.01682
G1 X76.457 Y44.245 E2.65841
G1 X76.457 Y44.780 E0.01681
G1 X135.707 Y104.029 E2.63463
G1 X135.172 Y104.029 E0.01682
G1 X76.457 Y45.315 E2.61085
G1 X76.457 Y45.849 E0.01681
G1 X134.637 Y104.029 E2.58707
G1 X134.102 Y104.029 E0.01682
G1 X76.457 Y46.384 E2.56329
G1 X76.457 Y46.919 E0.01681
G1 X133.567 Y104.029 E2.53951
G1 X133.033 Y104.029 E0.01682
G1 X76.457 Y47.454 E2.51573
G1 X76.457 Y47.988 E0.01681
G1 X132.498 Y104.029 E2.49195
G1 X131.963 Y104.029 E0.01682
G1 X76.457 Y48.523 E2.46817
G1 X76.457 Y49.058 E0.01681
G1 X131.428 Y104.029 E2.44440
G1 X130.893 Y104.029 E0.01682
G1 X76.457 Y49.592 E2.42062
G1 X76.457 Y50.127 E0.01681
G1 X130.359 Y104.029 E2.39684
G1 X129.824 Y104.029 E0.01682
